X:1
T:Hora ch'ogn'animal
T:Horatio Vecchi
T:Source : Caneonette a tre voci di H.Vecchi et di G.Capilupi da Modena---Venetia---Ang.Gardano---1597. Editor : André Vierendeels (15/02/17).
T:Notes : Original clefs : G2, G2, F3 Editorial accidentals above the staff Lute accompaniment is not added in this edition m 21 i S 2 : second "B" notated as "A" in original print Square bracket indicates ligature
T:Hora ch'ogn'animal
T:©
T:©
C:Horatio Vecchi
Z:©
%%score [ 1 2 3 ]
L:1/8
Q:1/4=120
M:2/2
K:F
V:1 treble nm="Soprano 1" snm="S 1"
V:2 treble nm="Soprano 2" snm="S 2"
V:3 treble-8 nm="Tenor" snm="T"
V:1
 A8- | A4 =B2 B2 | c4 c4 | d8- | d4 d4 | _e4 d4 | c8 | A4 z2 d2 | d2 d2 B3 A | G4 c3 B | %10
w: 1. Ho-|* ra ch'ogn'|a- ni-|mal|_ entr'|è'l suo|let-|to, io|vad' er- ran- *||
w: 2. Can-|* to ma'l|mio can-|tar|_ non|vien dal|co-|re, ch'el-|la si gia- *|ce, e _|
 A3 G F3 G | A4 G4 | z4 g4 | f8- | f4 e4- | e4 d4- | d4 ^c4 |[M:2/4] d4 ::[M:4/4] z2 f2 e2 d2 | %19
w: |* do,|il|duol|sfo- gan-|||do,|per Don- na|
w: _ _ _ _|m'o- de,|e|ta-||||ce,|per non mi|
 c2 B2 A4- | A2 d2 c2 B2 |"^b""^b" e2 e2 d2 c2- | c2 B2 A2 A2 | d2 c4 B2 | A4 !fermata!G4 :| %25
w: ch'il mio mal|_ prend' a di-|let- to, per mio|_ di- spet- to,|per mio di-|spet- to.|
w: far un mi-|* ni- mo fa-|vo- re, mi- ra|_ c'hu- mo- re,|mi- ra c'hu-|mo- re.|
V:2
 ^F8- | F4 G2 G2 | A4 G4 | ^F6 G2 | A4 =B4 | c4 d4 | _e8 | d2 f2 f2 f2 | fedc dG g2- | %9
w: 1. Ho|_ ra ch'ogn'|a- ni-|mal _|_ entr'|è'l suo|let-|to, io vad' er-|ran- * * * * * *|
w: 3. S'in-|* fi- ne|di dor-|mir _|_ ma|la cru-|de-|le, so che non|dor- * * * * * *|
 gf e3 d c2- | cB A3 GFE | F4 D4 | d4 c4- | c4 B2 A2 | B2 G2 g4- | g4 f4 | e8 |[M:2/4] d4 :: %18
w: ||* do,|il duol|_ _ _||* sfo-|gan-|do,|
w: ||* me,|ma fa|_ _ _|* * per|_ tor-||me,|
[M:4/4] z2 d2 c2 B2 | A2 G2 ^F4- | F2 B2 G2 A2 | c2 c2 F2 A2- | A2 G2 ^F2 F2 | B2 A4 G2 | %24
w: per Don- na|ch'il mio mal|_ pren- d'a di-|let- to, per mio|_ di- spet- to,|per mio di-|
w: la vi- a,|col spre- giar|_ le mie que-|rel- le, o ch'in-|* fe- de- le,|o ch'in- fe-|
 ^F4 !fermata!G4 :| %25
w: spet- to.|
w: de- le.|
V:3
 D8- | D4 G2 G2 | F4 _E4 | D8- | D4 G4 | C4 =B,4 | C8 | D2 d2 d2 d2 | B3 A G4 | c3 B A3 G | %10
w: 1. Ho|_ ra ch'ogn'|a- ni-|mal|_ entr'|è'l suo|let-|to, io vad' er-|ran- * *||
w: 4. Gia|_ la stel-|la del|gior-|* no'in|ciel veg-|io|io, e la mia|Tur- * *||
 F3 E D4 | D2 d2 =B4- | B4 c4 | d8 | G8 | A8- | A8 |[M:2/4] D4 ::[M:4/4] z2 d2 A2 B2 | F2 G2 D4- | %20
w: |do, il duol|_ sfo-|gan-||||do,|per Don- na|ch'il mio mal|
w: |ca, vi- a|_ piu|s'in-||tur-||ca,|al Tri- bu-|nal d'A- mor|
"^b" D2 B,2 E2 D2 | C2 C2 B,2 C2- |"^b" C2 E2 D2 D2 | B,2 C4 C2 | D4 !fermata!G4 :| %25
w: _ pren- d'a di-|let to, per mio|_ di- spet- to,|per mio di-|spet- to.|
w: _ ec- co m'in-|vi- o, al- ber-|* go'a di- o,|al- ber- go'a|di- o.|

